X: 2304
T: Bad Timing
R: jig
M: 6/8
K: Emajor
M:7/8
|:B,z GG FEF|FG BE FEB,|Cz ee dBF|1 GF GB cBF:|2 GF GB efg||
|:Bc ce dBF|FG BE FEB,|CB, CE FEF|GF GA BAB|
Bc ce dBF|FG BE FEB,|Cz ee dBF|GF GB efg:|

